X: 33028
T: Pride Of Erin, The
R: jig
M: 6/8
K: Edorian
G|:EEE GFE|eee BAF|FED ded|BAF AFD|
EEE GFE|eee BAF|FED ded|1 BAF E2 G:|2 BAF E2 B||
|:e2f gfe|dBc def|e2B BAF|E2B EBE|
EEE GFE|eee BAF|FED ded|1 BAF E2 B:|2 BAF E3||

